packages/foundations/assets/icons/functional/images/communication/speech_bubble_exclamation_mark_12.svg

<svg width="12" height="12" viewBox="0 0 12 12" fill="none" xmlns="http://www.w3.org/2000/svg">
<g clip-path="url(#clip0_231_150)">
<path fill-rule="evenodd" clip-rule="evenodd" d="M9.24704 1.20001C10.1529 1.20001 10.8 1.87931 10.8 2.69917V7.50113C10.8 8.32099 10.1294 9.00029 9.29414 9.00029H4.10593C3.92944 9.00029 3.7765 9.04712 3.67061 9.16424L2.22358 10.6282C1.84712 11.003 1.20001 10.722 1.20001 10.1949V2.69917C1.20001 1.87931 1.88241 1.20001 2.71769 1.20001H9.24704ZM9.60001 2.40001H2.40001V8.76001L2.83598 8.34931C3.15419 8.04422 3.56663 7.8235 4.0026 7.80001H9.60001V2.40001ZM5.35501 6.65592C5.35501 7.03071 5.66088 7.31177 6.01386 7.31177C6.36678 7.31177 6.67265 7.03071 6.67265 6.65592C6.67265 6.30452 6.36678 6.00001 6.01386 6.00001C5.66088 6.00001 5.35501 6.30452 5.35501 6.65592ZM5.40001 5.401V3.00001H6.60001V5.401H5.40001Z" fill="#1A1C1F"/>
</g>
<defs>
<clipPath id="clip0_231_150">
<rect width="12" height="12" fill="white"/>
</clipPath>
</defs>
</svg>

<svg xmlns="http://www.w3.org/2000/svg" width="12" height="12" fill="none"><g clip-path="url(#a)"><path fill="#1A1C1F" fill-rule="evenodd" d="M9.247 1.2c.906 0 1.553.68 1.553 1.5V7.5c0 .82-.67 1.5-1.506 1.5H4.106c-.177 0-.33.046-.435.163l-1.447 1.464c-.377.375-1.024.094-1.024-.433V2.699c0-.82.682-1.499 1.518-1.499zM9.6 2.4H2.4v6.36l.436-.41c.318-.306.73-.526 1.167-.55H9.6zM5.355 6.656c0 .375.306.656.659.656a.656.656 0 0 0 .659-.656.67.67 0 0 0-.66-.656.67.67 0 0 0-.658.656M5.4 5.4V3h1.2v2.401z" clip-rule="evenodd"/></g><defs><clipPath id="a"><path fill="#fff" d="M0 0h12v12H0z"/></clipPath></defs></svg>
